X:285
T: Der Rebner
N: A0329
O: Europa, Mitteleuropa, Deutschland
N: Forster II (1540) No. 54.
R: Romanze, Ballade, Lied, Trinklied
M: 3/2
L: 1/2
K: F
FFF | A2A | c2c | AA
d | c2c | AAd | c2c | AA
A | AAA | A2A | B2A | GGG | F2E | F2
A | AAA | A2A | B2A | GGG | F2E | F3

@@@ Tune index: 285
